static/img/kroki/b7158fd66f10113fb3ba00b49c5b5aed.svg

<?xml version="1.0" encoding="us-ascii" standalone="no"?><svg xmlns="http://www.w3.org/2000/svg" xmlns:xlink="http://www.w3.org/1999/xlink" contentStyleType="text/css" height="252px" preserveAspectRatio="none" style="width:298px;height:252px;" version="1.1" viewBox="0 0 298 252" width="298px" zoomAndPan="magnify"><defs/><g><!--class aws_region--><g id="elem_aws_region"><rect codeLine="22" fill="#3D176E" height="39.7891" id="aws_region" rx="2.5" ry="2.5" style="stroke:#000D19;stroke-width:0.5;" width="137" x="80.5" y="7"/><ellipse cx="95.5" cy="26.8945" fill="#ADD1B2" rx="11" ry="11" style="stroke:#181818;stroke-width:1.0;"/><path d="M98.4688,32.5352 Q97.8906,32.832 97.25,32.9727 Q96.6094,33.1289 95.9063,33.1289 Q93.4063,33.1289 92.0781,31.4883 Q90.7656,29.832 90.7656,26.707 Q90.7656,23.582 92.0781,21.9258 Q93.4063,20.2695 95.9063,20.2695 Q96.6094,20.2695 97.25,20.4258 Q97.9063,20.582 98.4688,20.8789 L98.4688,23.5977 Q97.8438,23.0195 97.25,22.7539 Q96.6563,22.4727 96.0313,22.4727 Q94.6875,22.4727 94,23.5508 Q93.3125,24.6133 93.3125,26.707 Q93.3125,28.8008 94,29.8789 Q94.6875,30.9414 96.0313,30.9414 Q96.6563,30.9414 97.25,30.6758 Q97.8438,30.3945 98.4688,29.8164 L98.4688,32.5352 Z " fill="#000000"/><text fill="#D9B8FF" font-family="Helvetica" font-size="17" lengthAdjust="spacing" textLength="95" x="114.5" y="32.7798">aws_region</text></g><!--class aws_vpc--><g id="elem_aws_vpc"><rect codeLine="24" fill="#3D176E" height="39.7891" id="aws_vpc" rx="2.5" ry="2.5" style="stroke:#000D19;stroke-width:0.5;" width="112" x="39" y="106.79"/><ellipse cx="54" cy="126.6845" fill="#ADD1B2" rx="11" ry="11" style="stroke:#181818;stroke-width:1.0;"/><path d="M56.9688,132.3252 Q56.3906,132.622 55.75,132.7627 Q55.1094,132.9189 54.4063,132.9189 Q51.9063,132.9189 50.5781,131.2783 Q49.2656,129.622 49.2656,126.497 Q49.2656,123.372 50.5781,121.7158 Q51.9063,120.0595 54.4063,120.0595 Q55.1094,120.0595 55.75,120.2158 Q56.4063,120.372 56.9688,120.6689 L56.9688,123.3877 Q56.3438,122.8095 55.75,122.5439 Q55.1563,122.2627 54.5313,122.2627 Q53.1875,122.2627 52.5,123.3408 Q51.8125,124.4033 51.8125,126.497 Q51.8125,128.5908 52.5,129.6689 Q53.1875,130.7314 54.5313,130.7314 Q55.1563,130.7314 55.75,130.4658 Q56.3438,130.1845 56.9688,129.6064 L56.9688,132.3252 Z " fill="#000000"/><text fill="#D9B8FF" font-family="Helvetica" font-size="17" lengthAdjust="spacing" textLength="70" x="73" y="132.5698">aws_vpc</text></g><!--class aws_vpc_peering_connection--><g id="elem_aws_vpc_peering_connection"><rect codeLine="26" fill="#3D176E" height="39.7891" id="aws_vpc_peering_connection" rx="2.5" ry="2.5" style="stroke:#000D19;stroke-width:0.5;" width="284" x="7" y="206.58"/><ellipse cx="22" cy="226.4745" fill="#ADD1B2" rx="11" ry="11" style="stroke:#181818;stroke-width:1.0;"/><path d="M24.9688,232.1152 Q24.3906,232.412 23.75,232.5527 Q23.1094,232.7089 22.4063,232.7089 Q19.9063,232.7089 18.5781,231.0683 Q17.2656,229.412 17.2656,226.287 Q17.2656,223.162 18.5781,221.5058 Q19.9063,219.8495 22.4063,219.8495 Q23.1094,219.8495 23.75,220.0058 Q24.4063,220.162 24.9688,220.4589 L24.9688,223.1777 Q24.3438,222.5995 23.75,222.3339 Q23.1563,222.0527 22.5313,222.0527 Q21.1875,222.0527 20.5,223.1308 Q19.8125,224.1933 19.8125,226.287 Q19.8125,228.3808 20.5,229.4589 Q21.1875,230.5214 22.5313,230.5214 Q23.1563,230.5214 23.75,230.2558 Q24.3438,229.9745 24.9688,229.3964 L24.9688,232.1152 Z " fill="#000000"/><text fill="#D9B8FF" font-family="Helvetica" font-size="17" lengthAdjust="spacing" textLength="242" x="41" y="232.3598">aws_vpc_peering_connection</text></g><!--link aws_region to aws_vpc--><g id="link_aws_region_aws_vpc"><path codeLine="28" d="M138.33,47.22 C129.75,62.75 117.65,84.67 108.41,101.4 " fill="none" id="aws_region-to-aws_vpc" style="stroke:#1A83AF;stroke-width:2.0;"/><polygon fill="#1A83AF" points="105.65,105.41,113.5092,99.4743,108.0722,101.0359,106.5106,95.5988,105.65,105.41" style="stroke:#1A83AF;stroke-width:2.0;"/></g><!--link aws_region to aws_vpc_peering_connection--><g id="link_aws_region_aws_vpc_peering_connection"><path codeLine="29" d="M155.29,47.09 C160.13,62.91 166.41,86.04 169,106.79 C171.19,124.34 171.19,129.03 169,146.58 C166.69,165.06 161.46,185.43 156.93,200.84 " fill="none" id="aws_region-to-aws_vpc_peering_connection" style="stroke:#1A83AF;stroke-width:2.0;"/><polygon fill="#1A83AF" points="155.29,205.28,161.6911,197.7949,156.7163,200.4877,154.0235,195.5129,155.29,205.28" style="stroke:#1A83AF;stroke-width:2.0;"/></g><!--link aws_vpc to aws_vpc_peering_connection--><g id="link_aws_vpc_aws_vpc_peering_connection"><path codeLine="30" d="M105.67,147.01 C114.25,162.54 126.35,184.46 135.59,201.18 " fill="none" id="aws_vpc-to-aws_vpc_peering_connection" style="stroke:#1A83AF;stroke-width:2.0;"/><polygon fill="#1A83AF" points="138.35,205.2,137.5139,195.3867,135.9388,200.8198,130.5056,199.2447,138.35,205.2" style="stroke:#1A83AF;stroke-width:2.0;"/></g><!--SRC=[ZP11JuD048Nl_HMRS6u24gLSJ2X9evV6M6_6a6Ltjco0NJAxBQd6_swnObPeYzVtlddpPWh9WK3Ts0EfeSu1pSoKKZKKQKqIHDsckj98F26e2AEXkTBAJW9hMWDvW6eFLZ8w95uAoKe5nf0RnrfILcvHxnG_nLkaoXmjKDQXqeeQarYBCjzPSChmE5y8CII7eLx8W-WEHfX63lY3-BxFWtY8JAwwUlSliP7lG0BtQMjjOLHpjEARkjgo8voIeqDx_sB79ygvL5jowsZFfqwe0F_ecu9otNQqe9LnrnWB2DeU6aX7Lq6yu28w2pzUWbdtEK9Rao5ifLRaO_RfYFk6ZPMi0S1ZkOnffO3PVin9cRzwGR88azNR_BuVc_BFnCxw3l_alm00]--></g></svg>

<svg xmlns="http://www.w3.org/2000/svg" width="298" height="252" preserveAspectRatio="none" style="width:298px;height:252px"><rect width="137" height="39.789" x="80.5" y="7" fill="#3D176E" rx="2.5" ry="2.5" style="stroke:#000d19;stroke-width:.5"/><circle cx="95.5" cy="26.895" r="11" fill="#ADD1B2" style="stroke:#181818;stroke-width:1"/><path d="M98.469 32.535q-.578.297-1.219.438-.64.156-1.344.156-2.5 0-3.828-1.64-1.312-1.657-1.312-4.782t1.312-4.781q1.328-1.656 3.828-1.656.703 0 1.344.156.656.156 1.219.453v2.719q-.625-.578-1.219-.844-.594-.281-1.219-.281-1.344 0-2.031 1.078-.688 1.062-.688 3.156 0 2.094.688 3.172.688 1.062 2.031 1.062.625 0 1.219-.265.594-.281 1.219-.86v2.72Z"/><text x="114.5" y="32.78" fill="#D9B8FF" font-family="Helvetica" font-size="17" textLength="95">aws_region</text><rect width="112" height="39.789" x="39" y="106.79" fill="#3D176E" rx="2.5" ry="2.5" style="stroke:#000d19;stroke-width:.5"/><circle cx="54" cy="126.684" r="11" fill="#ADD1B2" style="stroke:#181818;stroke-width:1"/><path d="M56.969 132.325q-.578.297-1.219.438-.64.156-1.344.156-2.5 0-3.828-1.64-1.312-1.657-1.312-4.782t1.312-4.781q1.328-1.656 3.828-1.656.703 0 1.344.156.656.156 1.219.453v2.719q-.625-.579-1.219-.844-.594-.281-1.219-.281-1.343 0-2.031 1.078-.688 1.062-.688 3.156 0 2.094.688 3.172.688 1.062 2.031 1.062.625 0 1.219-.265.594-.281 1.219-.86v2.72Z"/><text x="73" y="132.57" fill="#D9B8FF" font-family="Helvetica" font-size="17" textLength="70">aws_vpc</text><rect width="284" height="39.789" x="7" y="206.58" fill="#3D176E" rx="2.5" ry="2.5" style="stroke:#000d19;stroke-width:.5"/><circle cx="22" cy="226.475" r="11" fill="#ADD1B2" style="stroke:#181818;stroke-width:1"/><path d="M24.969 232.115q-.578.297-1.219.438-.64.156-1.344.156-2.5 0-3.828-1.64-1.312-1.657-1.312-4.782t1.312-4.781q1.328-1.656 3.828-1.656.703 0 1.344.156.656.156 1.219.453v2.719q-.625-.578-1.219-.844-.594-.281-1.219-.281-1.343 0-2.031 1.078-.688 1.062-.688 3.156 0 2.094.688 3.172.688 1.062 2.031 1.062.625 0 1.219-.265.594-.281 1.219-.86v2.72Z"/><text x="41" y="232.36" fill="#D9B8FF" font-family="Helvetica" font-size="17" textLength="242">aws_vpc_peering_connection</text><path fill="none" d="M138.33 47.22c-8.58 15.53-20.68 37.45-29.92 54.18" style="stroke:#1a83af;stroke-width:2"/><path fill="#1A83AF" d="m105.65 105.41 7.86-5.936-5.438 1.562-1.561-5.437-.861 9.811z" style="stroke:#1a83af;stroke-width:2"/><path fill="none" d="M155.29 47.09c4.84 15.82 11.12 38.95 13.71 59.7 2.19 17.55 2.19 22.24 0 39.79-2.31 18.48-7.54 38.85-12.07 54.26" style="stroke:#1a83af;stroke-width:2"/><path fill="#1A83AF" d="m155.29 205.28 6.401-7.485-4.975 2.693-2.692-4.975 1.266 9.767z" style="stroke:#1a83af;stroke-width:2"/><path fill="none" d="M105.67 147.01c8.58 15.53 20.68 37.45 29.92 54.17" style="stroke:#1a83af;stroke-width:2"/><path fill="#1A83AF" d="m138.35 205.2-.836-9.813-1.575 5.433-5.433-1.575 7.844 5.955z" style="stroke:#1a83af;stroke-width:2"/></svg>
